src/img/contact-icon/clock.svg

<svg width="18" height="18" viewBox="0 0 18 18" fill="none" xmlns="http://www.w3.org/2000/svg">
<path d="M15.3619 2.63812C13.6631 0.93375 11.4075 0 9 0C6.5925 0 4.33687 0.93375 2.63812 2.63812C0.939375 4.3425 0 6.5925 0 9C0 11.4075 0.93375 13.6631 2.63812 15.3619C4.3425 17.0606 6.5925 18 9 18C11.4075 18 13.6631 17.0662 15.3619 15.3619C17.0606 13.6575 18 11.4075 18 9C18 6.5925 17.0662 4.33687 15.3619 2.63812ZM14.6419 14.6419C13.1344 16.1494 11.1319 16.9762 9 16.9762C6.86812 16.9762 4.86562 16.1494 3.35812 14.6419C0.2475 11.5312 0.2475 6.46875 3.35812 3.35812C4.86562 1.85063 6.87375 1.02375 9 1.02375C11.1262 1.02375 13.1344 1.85063 14.6419 3.35812C17.7525 6.46875 17.7525 11.5312 14.6419 14.6419Z" fill="#26B899"/>
<path d="M13.3204 7.05372C13.1742 6.81185 12.8592 6.73872 12.6173 6.88497L9.07918 9.04498L6.2048 4.35935C6.05855 4.11747 5.74355 4.04435 5.50168 4.1906C5.2598 4.33685 5.18668 4.65185 5.33293 4.89372L8.2073 9.57935L8.39855 9.89435C8.58418 10.2037 8.98918 10.2994 9.29293 10.1137L9.61355 9.91685L13.1517 7.75685C13.3936 7.60497 13.4667 7.2956 13.3204 7.05372Z" fill="#26B899"/>
</svg>

<svg width="18" height="18" fill="none" xmlns="http://www.w3.org/2000/svg"><path d="M15.362 2.638A8.912 8.912 0 009 0a8.912 8.912 0 00-6.362 2.638A8.945 8.945 0 000 9c0 2.408.934 4.663 2.638 6.362A8.945 8.945 0 009 18a8.912 8.912 0 006.362-2.638A8.945 8.945 0 0018 9a8.912 8.912 0 00-2.638-6.362zm-.72 12.004A7.922 7.922 0 019 16.976a7.922 7.922 0 01-5.642-2.334c-3.11-3.11-3.11-8.173 0-11.284A7.931 7.931 0 019 1.024c2.126 0 4.134.827 5.642 2.334 3.11 3.11 3.11 8.173 0 11.284z" fill="#26B899"/><path d="M13.32 7.054a.51.51 0 00-.703-.169L9.08 9.045 6.205 4.359a.511.511 0 10-.872.535l2.874 4.685.192.315a.65.65 0 00.894.22l.32-.197 3.539-2.16a.512.512 0 00.168-.703z" fill="#26B899"/></svg>
